X:1
T:Brasília, 87.87 D
T:Brasília, 87.87 D
T:Robert Lowry, 1873
T:Public Domain Courtesy of the Cyber Hymnal™
C:Robert Lowry, 1873
Z:Public Domain
Z:Courtesy of the Cyber Hymnal™
%%score ( 1 2 ) 3
L:1/8
Q:1/4=107
M:4/4
K:E
V:1 treble 
V:2 treble 
V:3 bass 
V:1
 [EG]2 [EG]2 [EG]2 [GB]2 | [GB]2 ([FA][EG]) [FA]2 [DF]2 | [DF]2 [DF]2 ([DF][EG]) ([FA][GB]) | %3
 [Ac]2 [GB]2 [GB]4 | [EG]2 [EG]2 [EG]2 [GB]2 | [GB]2 ([FA][EG]) [FA]2 [DF]2 | %6
 [DF][EG][FA][GB] [Ac]2 [DB]2 | E6 z2 | [Ac]2 [Ac]2 ([Ac][Bd]) ([ce][Ac]) | %9
 [GB]2 [GB]2 [GB]2 [EG]2 | [DF]2 [DF]2 ([DF][EG]) ([FA][GB]) | [Ac]2 [GB]2 [GB]4 | %12
 [Ac]2 [Ac]2 ([Ac][Bd]) ([ce][Ac]) | [GB]2 [GB]2 [GB]2 [EG]2 | [DF][EG][FA][GB] [Ac]2 [DB]2 | E8 |] %16
V:2
 x8 | x8 | x8 | x8 | x8 | x8 | x8 | E6 x2 | x8 | x8 | x8 | x8 | x8 | x8 | x8 | E8 |] %16
V:3
 [E,B,]2 [E,B,]2 [E,B,]2 [E,E]2 | [E,E]2 [E,B,]2 [B,,B,]2 [B,,B,]2 | %2
 [B,,B,]2 [B,,B,]2 [B,,B,]2 [B,,B,]2 | [E,B,]2 [E,E]2 [E,E]4 | [E,B,]2 [E,B,]2 [E,B,]2 [E,E]2 | %5
 [E,E]2 [E,B,]2 [B,,B,]2 [B,,B,]2 | [B,,B,][B,,B,][B,,B,][B,,B,] [B,,B,]2 [B,,B,]2 | [E,G,]6 z2 | %8
 [A,E]2 [A,E]2 [A,E]2 [A,E]2 | [E,E]2 [E,E]2 [E,E]2 [E,B,]2 | [B,,B,]2 [B,,B,]2 [B,,B,]2 [B,,B,]2 | %11
 [E,B,]2 [E,E]2 [E,E]4 | [A,E]2 [A,E]2 ([A,E][A,E]) ([A,E][A,E]) | [E,E]2 [E,E]2 [E,E]2 [E,B,]2 | %14
 [B,,B,][B,,B,][B,,B,][B,,B,] [B,,B,]2 [B,,B,]2 | [E,G,]8 |] %16

